X: 43534
T: You Can Call Me Big Al
R: jig
M: 6/8
K: Gmajor
D|:EGB A2G|ABA GB/c/d|~e3 ede|gdB A2G|
e2e ede|g3 gab|agf g2f|edB G2D|
EGF G2D|EGB AB/c/d|~e3 edB|e3 e2f|
gab agf|g2f edB|AGE G3-|G3- G2D:|
e3 ede|g3 gab|a2a aga|bag edB|
~e3 ede|g3 gab|agf g2f|edB AB/c/d|
~e3 ede|g3 gab|a2a aga|bag edB|
~e3 ~A3|~e3 fga|bzb- bag|a3- aga|
bag edB|e6-|e3- e2d|eaf g2d|
edB AGE|G6-|G3- G2D||

